source/img/icon-4.svg

<svg width="57" height="40" viewBox="0 0 57 40" fill="none" xmlns="http://www.w3.org/2000/svg">
<path d="M41.9467 11.75C38.307 10.7586 34.0607 10.0647 29.41 10.0647C26.478 10.0647 23.8493 10.2629 21.625 10.6595L14.75 6H1.10114L6.9651 12.1466H15.4577C10.807 13.7328 8.58272 15.6164 8.58272 15.6164V19.3836C8.58272 19.3836 10.9081 21.2672 15.5588 22.8534H6.86396L1 29H14.6489L21.5239 24.3405C23.8492 24.7371 26.3768 24.9354 29.3088 24.9354C33.8584 24.9354 38.1048 24.2414 41.8456 23.25C40.6324 21.4655 39.9246 19.5819 39.9246 17.4009C40.0257 15.4181 40.8345 13.5345 41.9467 11.75Z" fill="#63D1BB"/>
<path d="M45.4853 12.7412C44.1709 14.3274 43.4632 15.9136 43.4632 17.4998C43.4632 19.086 44.1709 20.6722 45.4853 22.2585C51.9559 20.0774 56 17.4998 56 17.4998C56 17.4998 51.9559 14.9222 45.4853 12.7412Z" fill="#63D1BB"/>
</svg>

<svg width="57" height="40" fill="none" xmlns="http://www.w3.org/2000/svg"><path d="M41.95 11.75c-3.64-1-7.89-1.69-12.54-1.69-2.93 0-5.56.2-7.79.6L14.75 6H1.1l5.87 6.15h8.49c-4.65 1.58-6.88 3.47-6.88 3.47v3.76s2.33 1.89 6.98 3.47h-8.7L1 29h13.65l6.87-4.66a49.05 49.05 0 0020.32-1.09 10.14 10.14 0 01-1.92-5.85c.1-1.98.91-3.87 2.03-5.65zM45.49 12.74c-1.32 1.59-2.03 3.17-2.03 4.76 0 1.59.71 3.17 2.03 4.76C51.96 20.08 56 17.5 56 17.5s-4.04-2.58-10.51-4.76z" fill="#63D1BB"/></svg>
